X:1
T:Title
%%score { 1 | 2 } { 3 | 4 }
L:1/8
M:4/4
K:Db
V:1 treble nm="Grand Piano, Piano"
V:2 treble 
V:3 bass nm="Grand Piano, Piano"
V:4 bass 
V:1
 z4 z2[Q:1/4=100] A2 | A2 F2 G2 B2 | A4 F2 d2 | d2 G2 A2 B2 |[M:3/4] E6 |[M:1/4] A2 | %6
w: 1.~The~|day~ of~ re sur|rec tion!~ Earth,~|tell~ it~ out~ a|broad;~|the~|
[M:4/4] A2 F2 G2 B2 | A4 F2 F2 | E2 c2 B2 =G2 |[M:3/4] A6 |[M:1/4] A2 |[M:4/4] A2 F2 D2 d2 | %12
w: pas so ver~ of~|glad ness,~ the~|pas so ver~ of~|God.~|From~|death~ to~ life~ e|
 d3 B G2 B2 | B2 =G2 E2 e2 |[M:3/4] e4 c2 |[M:1/4] A2 |[M:4/4] d2 d2 d2 d2 | d4 c2 B2 | %18
w: ter * nal,~ from~|earth~ un to~ the~|sky,~ *|our~|Christ~ hath~ brought~ us~|o ver,~ with~|
 A2 F2 E2 C2 |[M:3/4] D6 |] %20
w: hymns~ of~ vic to|ry.~|
V:2
 z4 z2 D2 | D2 D2 D2 D2 | D4 D2 F2 | G2 D2 D2 D2 |[M:3/4] C6 |[M:1/4] C2 |[M:4/4] D2 D2 D2 D2 | %7
 D4 D2 D2 | C2 E2 D2 D2 |[M:3/4] C6 |[M:1/4] C2 |[M:4/4] D2 D2 A,2 F2 | G4 D2 =D2 | E2 E2 B,2 =G2 | %14
[M:3/4] A6 |[M:1/4] E2 |[M:4/4] A,2 D2 E2 F2 | G4 D2 D2 | D2 D2 A,2 A,2 |[M:3/4] A,6 |] %20
V:3
 z4 z2 F,2 | F,2 A,2 B,2 G,2 | F,4 A,2 A,2 | G,2 D2 C2 B,2 |[M:3/4] A,6 |[M:1/4] G,2 | %6
[M:4/4] F,2 _C2 B,2 G,2 | F,4 A,2 A,2 | A,2 A,2 =G,2 B,2 |[M:3/4] A,6 |[M:1/4] G,2 | %11
[M:4/4] F,2 _C2 C2 C2 | B,3 D B,2 A,2 | =G,2[K:treble] D2 D2 D2 |[M:3/4] C4 E2 |[M:1/4] C2 | %16
[M:4/4] D2[K:bass] A,2 B,2 _C2 | D4 D2 G,2 | F,2 A,2 G,2 E,2 |[M:3/4] F,6 |] %20
V:4
 z4 z2 D,2 | D,2 D,2 D,2 D,2 | D,4 D,2 _C,2 | B,,2 B,,2 A,,2 G,,2 |[M:3/4] A,,6 |[M:1/4] A,,2 | %6
[M:4/4] D,2 D,2 D,2 D,2 | D,4 D,2 D,2 | E,2 E,2 E,2 E,2 |[M:3/4] A,,6 |[M:1/4] A,,2 | %11
[M:4/4] D,2 A,2 F,2 D,2 | G,,4 G,2 F,2 | E,2 B,2 =G,2 E,2 |[M:3/4] A,,4 A,2 |[M:1/4] G,2 | %16
[M:4/4] F,2 F,2 G,2 A,2 | B,4 G,2 G,,2 | A,,2 A,,2 A,,2 A,,2 |[M:3/4] D,6 |] %20

